_icons/SVG/542-leavanny.svg

<svg xmlns="http://www.w3.org/2000/svg" viewBox="0 0 32 32"><title>542-leavanny</title><path d="M14.33876,25.28081A3.87868,3.87868,0,0,0,16,27.62949V22.93206C15.08252,22.93206,14.33876,23.98365,14.33876,25.28081Z" style="fill:#9acc2e"/><path d="M11.68928,16.22282c1.10529.76943,2.35135.58213,3.69334-.25749l.26541-2.092Q13.66863,16.25645,11.68928,16.22282Z" style="fill:#9acc2e"/><path d="M15.648,13.87331h-.29674l-3.662,2.34951Q13.6687,16.25639,15.648,13.87331Z" style="fill:#ffd96c"/><polygon points="14.039 27.745 14.039 28.469 14.32 31.992 14.564 28.469 14.564 27.825 14.039 27.745" style="fill:#ffd96c"/><path d="M14.63417,18.44355c-.61478,0-1.478,2.264-1.478,4.75722.33554,2.51652.17462,5.26828,1.16419,5.26828s.861-2.446,1.06231-5.26828C15.38262,20.70752,15.249,18.44355,14.63417,18.44355Z" style="fill:#3a9b46"/><path d="M15.92575,14.14247a3.00525,3.00525,0,0,1-.84406-.11756,3.13085,3.13085,0,0,0-.35095,1.43108,2.7425,2.7425,0,0,0,.45056,1.97154H16V14.133C15.97337,14.13366,15.95276,14.14247,15.92575,14.14247Z" style="fill:#3a9b46"/><path d="M15.1813,17.42753c-1.23718.40086-.43274,6.10118.8187,6.39082V17.42753Z" style="fill:#ffd96c"/><path d="M15.08169,14.02491a3.00525,3.00525,0,0,0,.84406.11756c.027,0,.04762-.00881.07425-.00951v-.96212C15.71721,13.17084,15.34958,13.508,15.08169,14.02491Z" style="fill:#ffd96c"/><path d="M12.73294,1.40116C10.25669,11.76563,11.64591,13.5682,16,13.5682V7.99165Z" style="fill:#a2d336"/><path d="M15.38262,8.38593l-1.0623-4.73162a11.095,11.095,0,0,1-.9092-3.66137c-.40647,1.62973-.6393,3.13517.338,3.77439L14.9359,8.56284Z" style="fill:#ffe28a"/><path d="M12.73294,10.77992A3.05632,3.05632,0,0,0,16,13.5682V7.99165A3.05627,3.05627,0,0,0,12.73294,10.77992Z" style="fill:#ffe28a"/><path d="M10.75594,18.25043l.93335-2.02764c-3.27981.21486-5.06783,1.52666-5.8576,3.5725l3.315-.4184C9.06042,18.36825,9.76854,18.16736,10.75594,18.25043Z" style="fill:#9acc2e"/><path d="M13.33071,20.97c0-1.90568.55519-3.54248,1.85062-3.54248Z" style="fill:#9acc2e"/><ellipse cx="14.21083" cy="10.98647" rx="0.54218" ry="0.84591" style="fill:#d56a7d"/><circle cx="14.22212" cy="10.62769" r="0.23285" style="fill:#fff"/><path d="M17.66124,25.29547A3.8787,3.8787,0,0,1,16,27.64416V22.94672C16.91748,22.94672,17.66124,23.99831,17.66124,25.29547Z" style="fill:#93c427"/><path d="M20.31072,16.23748c-1.10529.76944-2.35135.58214-3.69334-.25749L16.352,13.888Q18.33137,16.27112,20.31072,16.23748Z" style="fill:#93c427"/><path d="M16.352,13.888h.29674l3.662,2.3495Q18.33131,16.27107,16.352,13.888Z" style="fill:#ffd04d"/><polygon points="17.961 27.76 17.961 28.484 17.68 32.007 17.436 28.484 17.436 27.84 17.961 27.76" style="fill:#ffd04d"/><path d="M17.36583,18.45822c.61478,0,1.478,2.264,1.478,4.75722-.33554,2.51652-.17462,5.26828-1.16419,5.26828s-.861-2.446-1.06231-5.26828C16.61738,20.72219,16.751,18.45822,17.36583,18.45822Z" style="fill:#2f963c"/><path d="M16.07425,14.15713a3.00526,3.00526,0,0,0,.84406-.11755,3.13081,3.13081,0,0,1,.35095,1.43107,2.74253,2.74253,0,0,1-.45056,1.97155H16V14.14762C16.02663,14.14832,16.04724,14.15713,16.07425,14.15713Z" style="fill:#2f963c"/><path d="M16.8187,17.4422c1.23718.40085.43274,6.10118-.8187,6.39081V17.4422Z" style="fill:#ffd04d"/><path d="M16.91831,14.03958a3.00526,3.00526,0,0,1-.84406.11755c-.027,0-.04762-.00881-.07425-.00951V13.1855C16.28279,13.1855,16.65042,13.52269,16.91831,14.03958Z" style="fill:#ffd04d"/><path d="M19.26706,1.41583c2.47625,10.36447,1.087,12.167-3.26706,12.167V8.00631Z" style="fill:#9acc2e"/><path d="M16.61738,8.4006,17.67968,3.669a11.09511,11.09511,0,0,0,.9092-3.66137c.40647,1.62972.6393,3.13516-.338,3.77438L17.0641,8.57751Z" style="fill:#ffd96c"/><path d="M19.26706,10.79459A3.05632,3.05632,0,0,1,16,13.58287V8.00631A3.05628,3.05628,0,0,1,19.26706,10.79459Z" style="fill:#ffd96c"/><path d="M21.24406,18.26509l-.93335-2.02763c3.27981.21486,5.06783,1.52666,5.8576,3.57249l-3.315-.4184C22.93958,18.38292,22.23146,18.182,21.24406,18.26509Z" style="fill:#93c427"/><path d="M18.66929,20.9847c0-1.90569-.55519-3.54248-1.85062-3.54248Z" style="fill:#93c427"/><ellipse cx="17.78917" cy="11.00113" rx="0.54218" ry="0.84591" style="fill:#cb6278"/><circle cx="17.77788" cy="10.64236" r="0.23285" style="fill:#fff"/></svg>

<svg xmlns="http://www.w3.org/2000/svg" viewBox="0 0 32 32"><path d="M14.339 25.28A3.879 3.879 0 0016 27.63v-4.698c-.917 0-1.661 1.052-1.661 2.349zm-2.649-9.057c1.105.77 2.35.582 3.693-.258l.265-2.092q-1.98 2.383-3.959 2.35z" fill="#9acc2e"/><path d="M15.648 13.873h-.297l-3.662 2.35q1.98.033 3.959-2.35zm-1.609 13.872v.724l.281 3.523.244-3.523v-.644l-.525-.08z" fill="#ffd96c"/><path d="M14.634 18.444c-.615 0-1.478 2.264-1.478 4.757.336 2.516.175 5.268 1.164 5.268s.861-2.446 1.063-5.268c0-2.493-.134-4.757-.749-4.757zm1.292-4.302a3.005 3.005 0 01-.844-.117 3.13 3.13 0 00-.351 1.431 2.743 2.743 0 00.45 1.972H16v-3.295c-.027 0-.047.01-.074.01z" fill="#3a9b46"/><path d="M15.181 17.428c-1.237.4-.432 6.1.819 6.39v-6.39zm-.099-3.403a3.005 3.005 0 00.844.117c.027 0 .047-.008.074-.009v-.962c-.283 0-.65.337-.918.854z" fill="#ffd96c"/><path d="M12.733 1.401C10.257 11.766 11.646 13.568 16 13.568V7.992z" fill="#a2d336"/><path d="M15.383 8.386L14.32 3.654a11.095 11.095 0 01-.909-3.661c-.406 1.63-.64 3.135.338 3.774l1.187 4.796z" fill="#ffe28a"/><path d="M12.733 10.78A3.056 3.056 0 0016 13.568V7.992a3.056 3.056 0 00-3.267 2.788z" fill="#ffe28a"/><path d="M10.756 18.25l.933-2.027c-3.28.215-5.068 1.526-5.857 3.572l3.315-.418c-.087-1.009.622-1.21 1.609-1.127zm2.574 2.72c0-1.906.556-3.542 1.851-3.542z" fill="#9acc2e"/><ellipse cx="14.211" cy="10.986" rx=".542" ry=".846" fill="#d56a7d"/><circle cx="14.222" cy="10.628" r=".233" fill="#fff"/><path d="M17.661 25.295A3.879 3.879 0 0116 27.645v-4.698c.917 0 1.661 1.051 1.661 2.348zm2.649-9.058c-1.105.77-2.35.583-3.693-.257l-.265-2.092q1.98 2.383 3.959 2.35z" fill="#93c427"/><path d="M16.352 13.888h.297l3.662 2.35q-1.98.033-3.959-2.35zm1.609 13.872v.724l-.281 3.523-.244-3.523v-.644l.525-.08z" fill="#ffd04d"/><path d="M17.366 18.458c.615 0 1.478 2.264 1.478 4.757-.336 2.517-.175 5.269-1.164 5.269s-.861-2.446-1.063-5.269c0-2.493.134-4.757.749-4.757zm-1.292-4.301a3.005 3.005 0 00.844-.117 3.13 3.13 0 01.351 1.43 2.743 2.743 0 01-.45 1.972H16v-3.294c.027 0 .047.01.074.01z" fill="#2f963c"/><path d="M16.819 17.442c1.237.401.432 6.101-.819 6.391v-6.39zm.099-3.402a3.005 3.005 0 01-.844.117c-.027 0-.047-.009-.074-.01v-.962c.283 0 .65.338.918.855z" fill="#ffd04d"/><path d="M19.267 1.416C21.743 11.78 20.354 13.583 16 13.583V8.006z" fill="#9acc2e"/><path d="M16.617 8.4l1.063-4.73a11.095 11.095 0 00.909-3.661c.406 1.63.64 3.135-.338 3.774l-1.187 4.796z" fill="#ffd96c"/><path d="M19.267 10.795A3.056 3.056 0 0116 13.583V8.006a3.056 3.056 0 013.267 2.789z" fill="#ffd96c"/><path d="M21.244 18.265l-.933-2.028c3.28.215 5.068 1.527 5.857 3.573l-3.315-.418c.087-1.01-.622-1.21-1.609-1.127zm-2.574 2.72c0-1.906-.556-3.543-1.851-3.543z" fill="#93c427"/><ellipse cx="17.789" cy="11.001" rx=".542" ry=".846" fill="#cb6278"/><circle cx="17.778" cy="10.642" r=".233" fill="#fff"/></svg>
